X:1
T:Kookabura
M:4/4
L:1/8
K:C
 G G G G A2 A A | G2 E2 G2 E2 | E E E E F2 F F | E2 C2 E2 C2 | 
 c4 A B c A | G4 G A G F | E2 C2 C2 D2 | C8 | c8 ||

